X: 6406
T: Castle Of Dromore, The
R: waltz
M: 3/4
K: Fmajor
AB|c4 c2|c4 c2|d4 c2|c2 d2 e2|f4 B2|A4 B2|c6|z4 de|
f4 F2|F4 F2|G4 F2|F2 G2 A2|B4 d2|c4 B2|A6|z4 de|
f2 g2 f2|e2 f2 e2|d2 e2 d2|c4 B2|A4 c2|B2 A2 G2|F6|A4 c2|
B2 c2 B2|G4 B2|A4 F2|A4 c2|B2 c2 B2|G4 E2|F6|F4||

